storage/app/icons/phosphoricons/thin/notepad-thin.svg

<svg xmlns="http://www.w3.org/2000/svg" fill="currentColor" viewBox="0 0 256 256"><path d="M164 128a4 4 0 0 1-4 4H96a4 4 0 0 1 0-8h64a4 4 0 0 1 4 4m-4 28H96a4 4 0 0 0 0 8h64a4 4 0 0 0 0-8m52-116v160a28 28 0 0 1-28 28H72a28 28 0 0 1-28-28V40a4 4 0 0 1 4-4h28V24a4 4 0 0 1 8 0v12h40V24a4 4 0 0 1 8 0v12h40V24a4 4 0 0 1 8 0v12h28a4 4 0 0 1 4 4m-8 4h-24v12a4 4 0 0 1-8 0V44h-40v12a4 4 0 0 1-8 0V44H84v12a4 4 0 0 1-8 0V44H52v156a20 20 0 0 0 20 20h112a20 20 0 0 0 20-20Z"/></svg>

<svg xmlns="http://www.w3.org/2000/svg" viewBox="0 0 256 256" fill="currentColor"><path d="M164,128a4,4,0,0,1-4,4H96a4,4,0,0,1,0-8h64A4,4,0,0,1,164,128Zm-4,28H96a4,4,0,0,0,0,8h64a4,4,0,0,0,0-8ZM212,40V200a28,28,0,0,1-28,28H72a28,28,0,0,1-28-28V40a4,4,0,0,1,4-4H76V24a4,4,0,0,1,8,0V36h40V24a4,4,0,0,1,8,0V36h40V24a4,4,0,0,1,8,0V36h28A4,4,0,0,1,212,40Zm-8,4H180V56a4,4,0,0,1-8,0V44H132V56a4,4,0,0,1-8,0V44H84V56a4,4,0,0,1-8,0V44H52V200a20,20,0,0,0,20,20H184a20,20,0,0,0,20-20Z"/></svg>
